mobile/apps/auth/assets/custom-icons/icons/g2a.svg

<svg xmlns="http://www.w3.org/2000/svg" fill="none" viewBox="0 0 500 500"><g clip-path="url(#a)"><path fill="#555E63" d="M218.857 235.572c-22.286 0-40.572 18.286-40.572 40.571v45.715H292l16-30.286h-97.715v-12c0-7.429 5.715-13.143 13.143-13.143h64c24 0 42.857-19.428 42.857-42.857s-19.428-42.857-42.857-42.857l-76-1.143c-16.571 0-30.285 13.714-30.285 30.286h104c6.857 0 12.571 5.143 13.142 12.571 0 6.857-5.142 12.572-12 13.143h-67.428Z"/><path fill="#F05F00" d="M72.571 291.001C50.286 291.001 32 272.715 32 250.429s18.286-40.571 40.571-40.571h81.715v-30.286h-84C31.429 180.143 0 211.572 0 250.429s31.429 70.857 70.857 70.857h84v-85.714H64v30.286h59.429v25.143H72.571Z"/><path fill="#0E9FE2" d="M434.286 196.142c-2.286-4.571-5.714-8.571-9.714-12C420 180.714 413.715 178.428 408 179c-5.714 0-11.428 1.714-16 5.142-4 3.429-7.428 7.429-9.714 12C356 246.428 316 321.285 316 321.285h36l56-106.857 26.286 50.286h-40.571L408 292.142h40.572L464 321.857h36c0-.572-39.428-75.429-65.714-125.715Z"/></g><defs><clipPath id="a"><path fill="#fff" d="M0 179h500v142.286H0z"/></clipPath></defs></svg>

<svg width="500" height="500" viewBox="0 0 500 500" fill="none" xmlns="http://www.w3.org/2000/svg">
<g clip-path="url(#clip0_143_302)">
<path d="M218.857 235.572C196.571 235.572 178.285 253.858 178.285 276.143V321.858H292L308 291.572H210.285V279.572C210.285 272.143 216 266.429 223.428 266.429H287.428C311.428 266.429 330.285 247.001 330.285 223.572C330.285 200.143 310.857 180.715 287.428 180.715L211.428 179.572C194.857 179.572 181.143 193.286 181.143 209.858H285.143C292 209.858 297.714 215.001 298.285 222.429C298.285 229.286 293.143 235.001 286.285 235.572C286.285 235.572 286.285 235.572 285.714 235.572H218.857Z" fill="#555E63"/>
<path d="M72.5714 291.001C50.2857 291.001 32 272.715 32 250.429C32 228.143 50.2857 209.858 72.5714 209.858H154.286V179.572H70.2857C31.4286 180.143 0 211.572 0 250.429C0 289.286 31.4286 321.286 70.8571 321.286H154.857V235.572H64V265.858H123.429V291.001H72.5714Z" fill="#F05F00"/>
<path d="M434.286 196.142C432 191.571 428.572 187.571 424.572 184.142C420 180.714 413.715 178.428 408 179C402.286 179 396.572 180.714 392 184.142C388 187.571 384.572 191.571 382.286 196.142C356 246.428 316 321.285 316 321.285H352L408 214.428L434.286 264.714H393.715L408 292.142H448.572L464 321.857H500C500 321.285 460.572 246.428 434.286 196.142Z" fill="#0E9FE2"/>
</g>
<defs>
<clipPath id="clip0_143_302">
<rect width="500" height="142.286" fill="white" transform="translate(0 179)"/>
</clipPath>
</defs>
</svg>
